core/icons/src/images/chains/Neon.svg

<svg xmlns="http://www.w3.org/2000/svg" width="28" height="28" viewBox="0 0 28 28" fill="none">
  <path fill-rule="evenodd" clip-rule="evenodd" d="M28 14C28 21.732 21.732 28 14 28C6.26801 28 0 21.732 0 14C0 6.26801 6.26801 0 14 0C21.732 0 28 6.26801 28 14ZM8.58522 8.05248L13.8228 13.2901V8.3148C13.8228 8.26546 13.8326 8.21661 13.8516 8.17106C13.8705 8.12551 13.8983 8.08416 13.9333 8.04941C13.9683 8.01465 14.0099 7.98717 14.0556 7.96854C14.1013 7.94992 14.1502 7.94051 14.1995 7.94088H20.0887C20.094 7.94069 20.0994 7.9406 20.1047 7.94063L20.1128 7.94076L20.1183 7.9408C20.1655 7.94149 20.2122 7.95113 20.2559 7.96922C20.3013 7.98801 20.3425 8.01556 20.3772 8.05028C20.4119 8.085 20.4395 8.12622 20.4583 8.17159C20.4771 8.21695 20.4867 8.26557 20.4867 8.31467V14.1651C20.4883 14.1792 20.4892 14.1935 20.4892 14.2079V20.1013C20.4895 20.1506 20.4801 20.1995 20.4615 20.2452C20.4429 20.2909 20.4154 20.3324 20.3806 20.3675C20.3459 20.4025 20.3045 20.4303 20.259 20.4492C20.2134 20.4682 20.1646 20.478 20.1153 20.478C20.0634 20.4788 20.012 20.4691 19.964 20.4494C19.916 20.4298 19.8725 20.4005 19.8362 20.3636H19.8334L14.5955 15.1257V20.1014C14.5959 20.1507 14.5865 20.1996 14.5679 20.2453C14.5493 20.291 14.5218 20.3326 14.487 20.3676C14.4522 20.4026 14.4109 20.4304 14.3654 20.4494C14.3198 20.4683 14.271 20.4781 14.2216 20.4781H8.31944L8.3064 20.478C8.25682 20.4784 8.20767 20.4689 8.1618 20.4501C8.11593 20.4313 8.07425 20.4036 8.03919 20.3685C8.00414 20.3335 7.97641 20.2918 7.95761 20.2459C7.93881 20.2001 7.92933 20.1509 7.9297 20.1013V14.208C7.9297 14.1776 7.93338 14.1475 7.94064 14.1182V8.31478C7.94114 8.24031 7.9637 8.16766 8.00547 8.10601C8.04725 8.04436 8.10637 7.99648 8.17534 7.96841C8.24432 7.94034 8.32009 7.93334 8.39304 7.94831C8.46599 7.96327 8.53286 7.99952 8.58522 8.05248Z" fill="#DF42AB"/>
</svg>

<svg xmlns="http://www.w3.org/2000/svg" width="28" height="28" fill="none"><path fill="#DF42AB" fill-rule="evenodd" d="M28 14c0 7.732-6.268 14-14 14S0 21.732 0 14 6.268 0 14 0s14 6.268 14 14ZM8.585 8.052l5.238 5.238V8.315a.373.373 0 0 1 .377-.374h5.918a.374.374 0 0 1 .369.374v5.85a.38.38 0 0 1 .002.043V20.1a.376.376 0 0 1-.525.348.382.382 0 0 1-.128-.085h-.003l-5.237-5.238V20.1a.374.374 0 0 1-.374.377H8.306a.373.373 0 0 1-.376-.377v-5.893c0-.03.003-.06.01-.09V8.315a.377.377 0 0 1 .645-.263Z" clip-rule="evenodd"/></svg>
